X:4008
T:Dennington Bell
R:March
C:Trad.
O:England, Suffolk
M:4/4
L:1/8
Q:1/4=140
K:D
FG|"D"A2 fe d2 EF|"Em"G2 ed c2 EF|"A7"G2 ed c2 cB|"D"A>B AG F2 FG|
"D"A2 fe d2 EF|"Em"G2 ed c2 EF|"A7"G2 ed c2 Bc|"D"d>e fe d2:|
|:dc|"Em"B>B Bd e>d cB|"D"A>B Ad f4|"Em"B>A Bd e>d cB|"A"AB AF E2 FG|
"D"A2 fe d2 EF|"Em"G2 ed c2 EF|"A7"G2 ed c2 Bc|"D"d>e fe d2:|

